img/account.svg

<?xml version="1.0" encoding="UTF-8"?>
<!-- Generated by Pixelmator Pro 3.2.1 -->
<svg width="50" height="50" viewBox="0 0 50 50" xmlns="http://www.w3.org/2000/svg" xmlns:xlink="http://www.w3.org/1999/xlink">
    <path fill="#currentcolor" fill-rule="evenodd" stroke="none" d="M 25 50 C 11.192895 50 0 38.807104 0 25 C 0 11.192897 11.192895 0 25 0 C 38.807103 0 50 11.192897 50 25 C 50 38.807104 38.807103 50 25 50 Z M 25 42 C 27.322237 42 29.508335 41.555517 31.558333 40.666667 C 33.608331 39.777813 35.416668 38.549997 36.983333 36.983333 C 38.549998 35.416669 39.77776 33.608331 40.666667 31.558333 C 41.555574 29.508335 42 27.322186 42 25 C 42 22.677814 41.555574 20.491665 40.666667 18.441667 C 39.77776 16.391669 38.549998 14.583332 36.983333 13.016667 C 35.416668 11.450002 33.60557 10.222187 31.55 9.333333 C 29.49443 8.444483 27.30557 8 24.983333 8 C 22.661096 8 20.474998 8.444483 18.425 9.333333 C 16.375002 10.222187 14.569425 11.450002 13.008333 13.016667 C 11.447242 14.583332 10.222237 16.391669 9.333333 18.441667 C 8.444427 20.491665 8 22.677814 8 25 C 8 27.322186 8.444427 29.508335 9.333333 31.558333 C 10.222237 33.608331 11.450002 35.416669 13.016667 36.983333 C 14.583332 38.549997 16.391669 39.777813 18.441667 40.666667 C 20.491665 41.555517 22.677763 42 25 42 Z M 25 39.466667 C 23.722242 39.466667 22.461093 39.297189 21.216667 38.958333 C 19.972242 38.619482 18.797238 38.130517 17.691667 37.491667 C 16.586095 36.852812 15.605572 36.08333 14.75 35.183333 C 15.349999 34.238853 16.163907 33.430521 17.191667 32.758333 C 18.219426 32.086146 19.400001 31.572188 20.733333 31.216667 C 22.066665 30.861145 23.488909 30.683333 25 30.683333 C 26.488906 30.683333 27.897241 30.858334 29.225 31.208333 C 30.552759 31.558333 31.736093 32.069479 32.775 32.741667 C 33.813905 33.413854 34.633334 34.227814 35.233333 35.183333 C 34.377764 36.08333 33.400001 36.852812 32.3 37.491667 C 31.200001 38.130517 30.024999 38.619482 28.775 38.958333 C 27.525001 39.297189 26.266665 39.466667 25 39.466667 Z M 25.074837 27.850326 C 25.04995 27.850373 25.025 27.850261 25 27.85 C 23.92224 27.838853 22.95276 27.558333 22.091667 27.008333 C 21.230575 26.458334 20.547239 25.711144 20.041667 24.766667 C 19.536095 23.822189 19.283333 22.75552 19.283333 21.566667 C 19.272239 20.444479 19.52224 19.416666 20.033333 18.483333 C 20.544427 17.550001 21.233334 16.802813 22.1 16.241667 C 22.966666 15.68052 23.933334 15.4 25 15.4 C 26.055571 15.4 27.016668 15.68052 27.883333 16.241667 C 28.749999 16.802813 29.438906 17.550001 29.95 18.483333 C 30.461094 19.416666 30.716667 20.444479 30.716667 21.566667 C 30.716667 22.75552 30.461094 23.827813 29.95 24.783333 C 29.438906 25.738852 28.75276 26.491667 27.891667 27.041667 C 27.050755 27.578776 26.111799 27.848363 25.074837 27.850326 Z"/>
</svg>

<svg width="50" height="50" viewBox="0 0 50 50" xmlns="http://www.w3.org/2000/svg" xmlns:xlink="http://www.w3.org/1999/xlink">
	<path fill="#currentcolor" fill-rule="evenodd" stroke="none" d="M25 50a25 25 0 1 1 0-50 25 25 0 0 1 0 50Zm0-8c2.32 0 4.5-.44 6.56-1.33a17.38 17.38 0 0 0 9.1-9.11A16.3 16.3 0 0 0 42 25c0-2.32-.44-4.5-1.33-6.56a17.38 17.38 0 0 0-9.12-9.1A16.37 16.37 0 0 0 24.98 8c-2.32 0-4.5.44-6.55 1.33a17.28 17.28 0 0 0-9.1 9.11A16.3 16.3 0 0 0 8 25c0 2.32.44 4.5 1.33 6.56a17.38 17.38 0 0 0 9.11 9.1A16.3 16.3 0 0 0 25 42Zm0-2.53a14.34 14.34 0 0 1-7.3-1.98c-1.11-.64-2.1-1.4-2.95-2.3a8.07 8.07 0 0 1 2.44-2.43 12.1 12.1 0 0 1 3.54-1.54 16.5 16.5 0 0 1 4.27-.54c1.49 0 2.9.18 4.23.53 1.32.35 2.5.86 3.54 1.53a7.93 7.93 0 0 1 2.46 2.44 13.1 13.1 0 0 1-2.93 2.31 14.58 14.58 0 0 1-7.3 1.98Zm.07-11.62H25a5.4 5.4 0 0 1-2.9-.84 5.92 5.92 0 0 1-2.06-2.24 6.67 6.67 0 0 1-.76-3.2 6.18 6.18 0 0 1 2.82-5.33 5.22 5.22 0 0 1 2.9-.84 5.2 5.2 0 0 1 2.88.84 6.31 6.31 0 0 1 2.83 5.32c0 1.2-.25 2.27-.76 3.22a5.93 5.93 0 0 1-2.06 2.26c-.84.54-1.78.8-2.82.81Z"/>
</svg>
